icons/Brush_1_filled.svg

<svg width="24" height="24" viewBox="0 0 24 24" fill="none" xmlns="http://www.w3.org/2000/svg">
<path fill-rule="evenodd" clip-rule="evenodd" d="M10.6428,9.87147c-0.81776,1.12443 -1.38379,2.14553 -1.6917,2.79643c1.055,0.476 1.905,1.326 2.381,2.381c0.6509,-0.3079 1.672,-0.8739 2.7964,-1.6917c-0.4196,-0.9691 -0.8322,-1.6252 -1.3463,-2.1394c-0.5142,-0.5141 -1.1703,-0.9267 -2.1394,-1.34633zM17.0779,12.8574c-2.0328,1.9229 -4.2172,3.1591 -5.3521,3.6603c0.016,0.1586 0.0242,0.3195 0.0242,0.4823c0,2.6234 -2.12665,4.75 -4.75,4.75h-4c-0.41421,0 -0.75,-0.3358 -0.75,-0.75v-4c0,-2.6234 2.12665,-4.75 4.75,-4.75c0.16282,0 0.32373,0.0082 0.48233,0.0242c0.50112,-1.1349 1.73741,-3.31931 3.66027,-5.3521c2.2648,-2.39417 5.5733,-4.6721 9.8574,-4.6721c0.4142,0 0.75,0.33579 0.75,0.75c0,4.28411 -2.2779,7.5926 -4.6721,9.8574z" fill="#002B51"/>
</svg>

<svg width="24" height="24" viewBox="0 0 24 24" fill="none" xmlns="http://www.w3.org/2000/svg">
<path fill-rule="evenodd" clip-rule="evenodd" d="M10.6428 9.87147C9.82504 10.9959 9.25901 12.017 8.9511 12.6679C10.0061 13.1439 10.8561 13.9939 11.3321 15.0489C11.983 14.741 13.0041 14.175 14.1285 13.3572C13.7089 12.3881 13.2963 11.732 12.7822 11.2178C12.268 10.7037 11.6119 10.2911 10.6428 9.87147ZM17.0779 12.8574C15.0451 14.7803 12.8607 16.0165 11.7258 16.5177C11.7418 16.6763 11.75 16.8372 11.75 17C11.75 19.6234 9.62335 21.75 7 21.75H3C2.58579 21.75 2.25 21.4142 2.25 21V17C2.25 14.3766 4.37665 12.25 7 12.25C7.16282 12.25 7.32373 12.2582 7.48233 12.2742C7.98345 11.1393 9.21974 8.95489 11.1426 6.9221C13.4074 4.52793 16.7159 2.25 21 2.25C21.4142 2.25 21.75 2.58579 21.75 3C21.75 7.28411 19.4721 10.5926 17.0779 12.8574Z" fill="#002B51"/>
</svg>
